X:69
T:Pollonesse ur Andreas Dahlgrens notbok no 69
R:Slängpolska
O:Fågelvik, Tryserum, Småland
B:Andreas Dahlgrens Notbok
B:FMK - katalog Ma7 bild 27
Z:Till ABC Arne Kjellman 2017-03-22
N:[[!Sverige]], [[!Småland]], [[!Tryserum]],[[!Fågelvik]]
L:1/8
M:3/4
K:D
|: daaggf | feeddc | dc B2 g2 | f/e/d/c/ d2 D2 :|
|: d2 fdfa | c2 eceg | d2 fdfa | c2 eceg | fe/f/ ge/g/ ge/d/ | c/d/e/c/ d2 D2 :|

